X:43
T: Der Wasserkrug (Band 1), S. 133
N: P0817
O: Lothringen
S: PINCK, Louis: Verklingende Weisen, Bd 1, Metz 1928]
R: Standesunterschied, Beischlaf]
M: 2/4
L: 1/8
K: E
E | =GFGA | BBE
=G | FFEd | E2z
=G | A=GAB | =cc=G
c | BA=GA | E2
FA | BA=GF | E2z

@@@ Tune index: 7593
